X: 3
T: Lansdowne Lass, The
Z: Dr. Dow
S: https://thesession.org/tunes/4095#setting16887
R: reel
M: 4/4
L: 1/8
K: Dmaj
D2FA GEFE|DEFA defa|g2ed cAGE|1 FAGE D3A:|2 FAGE D3c|||:d2 (3fed adfa|bfaf gfed|cA~A2 BG~G2|AGFD EFGE|defa g2fg|a2ge fdcA|ABce dcAG|1 (3FGA GE D3c:|2 (3FGA GE D3A||
